ui-icons/icons/gauge-16.svg

<svg width="16px" height="16px" viewBox="0 0 16 16" version="1.1" xmlns="http://www.w3.org/2000/svg" xmlns:xlink="http://www.w3.org/1999/xlink">
  <path d="M6.25,2 C6.66421356,2 7,1.66421356 7,1.25 C7,0.835786438 6.66421356,0.5 6.25,0.5 L5.75,0.5 C5.33578644,0.5 5,0.835786438 5,1.25 C5,1.66421356 5.33578644,2 5.75,2 L6.25,2 Z M10,1.25 C10,1.66421356 9.66421356,2 9.25,2 L8.75,2 C8.33578644,2 8,1.66421356 8,1.25 C8,0.835786438 8.33578644,0.5 8.75,0.5 L9.25,0.5 C9.66421356,0.5 10,0.835786438 10,1.25 Z M12.25,2 C12.6642136,2 13,1.66421356 13,1.25 C13,0.835786438 12.6642136,0.5 12.25,0.5 L11.75,0.5 C11.3357864,0.5 11,0.835786438 11,1.25 C11,1.66421356 11.3357864,2 11.75,2 L12.25,2 Z M1.25,5.5 C1.25,5.91421356 1.58578644,6.25 2,6.25 C2.41421356,6.25 2.75,5.91421356 2.75,5.5 L2.75,5 C2.75,4.58578644 2.41421356,4.25 2,4.25 C1.58578644,4.25 1.25,4.58578644 1.25,5 L1.25,5.5 Z M2,9.25 C1.58578644,9.25 1.25,8.91421356 1.25,8.5 L1.25,8 C1.25,7.58578644 1.58578644,7.25 2,7.25 C2.41421356,7.25 2.75,7.58578644 2.75,8 L2.75,8.5 C2.75,8.91421356 2.41421356,9.25 2,9.25 Z M1.25,11.5 C1.25,11.9142136 1.58578644,12.25 2,12.25 C2.41421356,12.25 2.75,11.9142136 2.75,11.5 L2.75,11 C2.75,10.5857864 2.41421356,10.25 2,10.25 C1.58578644,10.25 1.25,10.5857864 1.25,11 L1.25,11.5 Z M9,4 C10.1263021,4 11.2526042,4.47570864 12.3789062,5.42712593 C12.7725872,5.75886169 12.9996246,6.24739372 13,6.76220703 L13,11.25 C13,11.9477646 12.5916283,12.5501489 12.0008494,12.8311884 L12,14.25 C12,14.6642136 11.6642136,15 11.25,15 C10.8357864,15 10.5,14.6642136 10.5,14.25 L10.5,13 L7.5,13 L7.5,14.25 C7.5,14.6642136 7.16421356,15 6.75,15 C6.33578644,15 6,14.6642136 6,14.25 L6.00014872,12.8316628 C5.40883171,12.5508273 5,11.9481575 5,11.25 L5,6.76220703 C5.00037542,6.24739372 5.22741283,5.75886169 5.62068359,5.42664039 C6.74739583,4.47570864 7.87369792,4 9,4 Z M9,5.5 C8.25714692,5.5 7.46145455,5.83607124 6.58905367,6.57301143 L6.579,6.581 L6.5511205,6.61197902 C6.52923642,6.64067701 6.51382882,6.67372828 6.50597684,6.70867433 L6.5,6.76220719 L6.5,11.25 C6.5,11.3880712 6.61192881,11.5 6.75,11.5 L11.25,11.5 C11.3880712,11.5 11.5,11.3880712 11.5,11.2500002 L11.5,6.76329953 C11.5,6.70814096 11.4817056,6.65509428 11.4488795,6.61199608 L11.42,6.581 L11.4109463,6.57301143 C10.6056532,5.89275894 9.86572119,5.55407527 9.17237647,5.50599526 L9,5.5 Z"/>
</svg>

<svg xmlns="http://www.w3.org/2000/svg" width="16" height="16" viewBox="0 0 16 16"><path d="M6.25 2a.75.75 0 0 0 0-1.5h-.5a.75.75 0 0 0 0 1.5zM10 1.25a.75.75 0 0 1-.75.75h-.5a.75.75 0 0 1 0-1.5h.5a.75.75 0 0 1 .75.75m2.25.75a.75.75 0 1 0 0-1.5h-.5a.75.75 0 1 0 0 1.5zm-11 3.5a.75.75 0 0 0 1.5 0V5a.75.75 0 0 0-1.5 0zM2 9.25a.75.75 0 0 1-.75-.75V8a.75.75 0 0 1 1.5 0v.5a.75.75 0 0 1-.75.75m-.75 2.25a.75.75 0 1 0 1.5 0V11a.75.75 0 1 0-1.5 0zM9 4q1.69 0 3.379 1.427c.394.332.62.82.621 1.335v4.488c0 .698-.408 1.3-1 1.581v1.419a.75.75 0 1 1-1.5 0V13h-3v1.25a.75.75 0 1 1-1.5 0v-1.418a1.75 1.75 0 0 1-1-1.582V6.762c0-.515.227-1.003.62-1.335Q7.31 4 9 4m0 1.5c-.743 0-1.539.336-2.41 1.073l-.011.008-.028.031a.3.3 0 0 0-.045.097l-.006.053v4.488c0 .138.112.25.25.25h4.5a.25.25 0 0 0 .25-.25V6.763a.25.25 0 0 0-.051-.151l-.029-.031-.01-.008c-.804-.68-1.544-1.019-2.238-1.067z"/></svg>
